src/main/resources/icons/AllIcons/json/object.svg

<!-- Copyright 2000-2021 JetBrains s.r.o. Use of this source code is governed by the Apache 2.0 license that can be found in the LICENSE file. -->
<svg xmlns="http://www.w3.org/2000/svg" width="16" height="16" viewBox="0 0 16 16">
  <g fill="none" fill-opacity=".9" fill-rule="evenodd">
    <path fill="#7F8B91" d="M5.537,13 C3.524,12.6261682 2.963,11.8785047 2.963,10.6869159 C2.963,10.5116822 2.996,10.0794393 2.996,9.88084112 C2.996,8.96962617 2.644,8.67757009 1.786,8.67757009 L1.3,8.67757009 L1.3,7.32242991 L1.786,7.32242991 C2.644,7.32242991 2.996,7.03037383 2.996,6.11915888 C2.996,5.92056075 2.963,5.48831776 2.963,5.31308411 C2.963,4.12149533 3.524,3.37383178 5.537,3 L5.834,4.17990654 C4.668,4.53037383 4.492,4.85747664 4.492,5.57009346 C4.492,5.80373832 4.525,6.18925234 4.525,6.43457944 C4.525,7.28738318 4.118,7.74299065 3.381,8 C4.118,8.25700935 4.525,8.71261682 4.525,9.56542056 C4.525,9.81074766 4.492,10.1962617 4.492,10.4299065 C4.492,11.1425234 4.668,11.4696262 5.834,11.8200935 L5.537,13 Z"/>
    <path fill="#7F8B91" d="M14.407,13 C12.394,12.6261682 11.833,11.8785047 11.833,10.6869159 C11.833,10.5116822 11.866,10.0794393 11.866,9.88084112 C11.866,8.96962617 11.514,8.67757009 10.656,8.67757009 L10.17,8.67757009 L10.17,7.32242991 L10.656,7.32242991 C11.514,7.32242991 11.866,7.03037383 11.866,6.11915888 C11.866,5.92056075 11.833,5.48831776 11.833,5.31308411 C11.833,4.12149533 12.394,3.37383178 14.407,3 L14.704,4.17990654 C13.538,4.53037383 13.362,4.85747664 13.362,5.57009346 C13.362,5.80373832 13.395,6.18925234 13.395,6.43457944 C13.395,7.28738318 12.988,7.74299065 12.251,8 C12.988,8.25700935 13.395,8.71261682 13.395,9.56542056 C13.395,9.81074766 13.362,10.1962617 13.362,10.4299065 C13.362,11.1425234 13.538,11.4696262 14.704,11.8200935 L14.407,13 Z" transform="matrix(-1 0 0 1 24.874 0)"/>
  </g>
</svg>

<svg xmlns="http://www.w3.org/2000/svg" width="16" height="16" viewBox="0 0 16 16"><rect id="frame" width="16" height="16" fill="none"/><g fill="#7F8B91" fill-opacity=".9" fill-rule="evenodd"><path d="M5.537 13c-2.013-.374-2.574-1.121-2.574-2.313 0-.175.033-.608.033-.806 0-.911-.352-1.203-1.21-1.203H1.3V7.322h.486c.858 0 1.21-.292 1.21-1.203 0-.198-.033-.63-.033-.806 0-1.192.561-1.94 2.574-2.313l.297 1.18c-1.166.35-1.342.677-1.342 1.39 0 .234.033.62.033.865 0 .852-.407 1.308-1.144 1.565.737.257 1.144.713 1.144 1.565 0 .246-.033.631-.033.865 0 .713.176 1.04 1.342 1.39L5.537 13z"/><path d="M10.467 13c2.013-.374 2.574-1.121 2.574-2.313 0-.175-.033-.608-.033-.806 0-.911.352-1.203 1.21-1.203h.486V7.322h-.486c-.858 0-1.21-.292-1.21-1.203 0-.198.033-.63.033-.806 0-1.192-.561-1.94-2.574-2.313l-.297 1.18c1.166.35 1.342.677 1.342 1.39 0 .234-.033.62-.033.865 0 .852.407 1.308 1.144 1.565-.737.257-1.144.713-1.144 1.565 0 .246.033.631.033.865 0 .713-.176 1.04-1.342 1.39l.297 1.18z"/></g></svg>
